X:41
T:A Lady walking in her garden (very nearly the same with ance crowdie twice crowdie)
Z:Jack Campin - http://www.campin.me.uk
S:Blaikie MS (NLS MS.1578) p15
N:Blaikie #40
M:2/4
L:1/8
V:1 midi program 1 74
V:2 midi program 1 46 bass middle = d transpose -24
Q:1/4=90
K:A Minor
[V:1] A |Be`de|cA``BE|Ee``dd   |eAA>B|
[V:2] z |e2 e2|a2 ^g2|ac'`be   |A2az |
%
[V:1]    Be`de|cA``Be|A>G`ED   |EGA2 |
[V:2]    e2 e2|a2 ^g2|a2  z2   |e2a2 |
%
[V:1] {D}EE E2|EG  D2|G>F ED/D/|EGA |]
[V:2]    c2 c2|c2  g2|G2  z2   |e2A |]
W:Transcription (c) Jack Campin 2009, no mirroring or republication without permission

